packages/ui-icons/src/Basic/16/Tablet_16.svg

<svg xmlns="http://www.w3.org/2000/svg" viewBox="0 0 20 20"><path d="M17 17H3a2 2 0 0 1-2-2V5a2 2 0 0 1 2-2h14a2 2 0 0 1 2 2v10a2 2 0 0 1-2 2ZM3 4a1 1 0 0 0-1 1v10a1 1 0 0 0 1 1h14a1 1 0 0 0 1-1V5a1 1 0 0 0-1-1Zm14 4h-1v4h1ZM4 9a1 1 0 1 0 1 1 1 1 0 0 0-1-1Z"/></svg>

<svg id="ready" xmlns="http://www.w3.org/2000/svg" viewBox="0 0 20 20"><title>Megaicons_work_16_1.8_cp</title><path d="M17,17H3a2,2,0,0,1-2-2V5A2,2,0,0,1,3,3H17a2,2,0,0,1,2,2V15A2,2,0,0,1,17,17ZM3,4A1,1,0,0,0,2,5V15a1,1,0,0,0,1,1H17a1,1,0,0,0,1-1V5a1,1,0,0,0-1-1ZM17,8H16v4h1ZM4,9a1,1,0,1,0,1,1A1,1,0,0,0,4,9Z"/></svg>
